X:846
T:Reel 846
M:4/4
K:Amaj
L:1/8
AF|EA, (3A,A,A, E2DC|B,A,G,B, A,2 (3EFG |AECE A,DFA|BGDC B,G,A,B,|CA, (3A,G,A,  (3DED ED|CA,EC A2GA|BGAF GEFD|B,CA,B, C2|CD|EA, (3A,A,A, E2ED|EA,A,C DFGD|EA, (3CA,A, EFGE|DB,G,B, DFED|EA, (3A,A,A, E2DC|B,A,G,A, B,CDB,|CB,CA BAGE|DB,G,B, =GEDB,|EA (3AGA BA (3AGA |EA (3AGA BAGA|EG (3GFG BG (3GGG |EDGF G2FG|EAAG BABG|EAAB cABA|GFGA BAGF|EDB,E DEFA|
